!!!!SEGMENT: pl-sa--68-a-ii-8--008_mrozowski-tadeusz--missa-ex-g-dona-nobis.krn
!!!cenid: 17xx:332
!!!COM: Mrozowski, Tadeusz
!!!COM-rismID: pe30020313
!!!CDT: <1790->1810
!!!CNT:
!!!OPR: Missa ex G
!!!OTL: Dona nobis
!!!OMV: 008
!!!PDT:
!!!AGN: Sacred; Mass
!!!SMS-siglum: PL-SA
!!!SMS-shelfmark: 68/A II 8
!!!SMS-shelfwork: 001-008 M
!!!SMS-variant:
!!!SMS-altvar:
!!!NIFC-rismSourceID: 1001035348
!!!NIFC-islandoraID:
!!!URL-pdf-islandora:
!!!URL-scan: https://bc.bdsandomierz.pl/dlibra/publication/1339/edition/1307/content @EN{Scan in the Sandomierz Diocese Digital Library} @PL{Skany w portalu Cyfrowa Biblioteka Diecezjalna w Sandomierzu}
!!!ONB-nifc: UWAGA: części Mszy: Kyrie, Gloria, Symphonia post Epistolam, Credo, Tantum Ergo Sacramentum, Sanctus, Agnus, Dona nobis, Presto
!!!OMD: Allo
!!!AIN: 2 violn 1 vox
!!!key: G
**kern	**dynam	**kern	**dynam	**kern	**dynam	**kern	**text	**dynam
*part4	*part4	*part3	*part3	*part2	*part2	*part1	*part1	*part1
*staff4	*	*staff3	*	*staff2	*	*staff1	*staff1	*
*I"Baſso	*	*I"Violino 2do.	*	*I"Violino. Primo.	*	*I"Canto Solo.	*	*
*I'b (=bc)	*	*I'vn 2	*	*I'vn 1	*	*I'S	*	*
*	*	*Ivioln	*	*Ivioln	*	*Ivox	*	*
*	*	*ICstr	*	*ICstr	*	*ICvox	*	*
*IGcont	*	*IGacmp	*	*IGacmp	*	*IGsolo	*	*
*clefF4	*	*clefG2	*	*clefG2	*	*clefC1	*	*
*Trd0c0	*	*	*	*	*	*	*	*
*k[f#]	*	*k[f#]	*	*k[f#]	*	*k[f#]	*	*
*G:	*	*G:	*	*G:	*	*G:	*	*
*M2/2	*	*M2/2	*	*M2/2	*	*M2/2	*	*
*met(c|)	*	*met(c|)	*	*met(c|)	*	*met(c|)	*	*
=1	=1	=1	=1	=1	=1	=1	=1	=1
*2\right	*	*	*	*	*	*	*	*
!	!	!LO:TX:a:t=allo	!	!	!	!	!	!
!LO:TX:t=P:problem=takty 1-8 -repetycja	!	!LO:TX:t=P:problem=takty 1-8 repetycja	!	!LO:TX:a:t=allo.	!	!LO:TX:a:t=allo.	!	!
!	!LO:DY:b:t=pp.	!	!	!	!LO:DY:b:t=p.	!	!	!
2G|>\	pp	2B/	.	2g/	p	2g/	Do-	pp
2A|>\	.	2c/	.	2a/	.	2a/	-na	.
=2	=2	=2	=2	=2	=2	=2	=2	=2
2F#|>\	.	2A/	.	2f#/	.	2f#/	no-	.
2G|>\	.	2B/	.	2g/	.	2g/	-bis	.
=3	=3	=3	=3	=3	=3	=3	=3	=3
*	*	*	*	*	*	*2\right	*	*
2A|>\	.	2f#/	.	2a/	.	2a\	pa-	.
2B|>\	.	2g/	.	2b/	.	2b\	.	.
=4	=4	=4	=4	=4	=4	=4	=4	=4
!	!	!LO:TX:a:t=bis.	!	!	!	!	!	!
2F#|>\	.	2A/	.	2f#/	.	2f#/	.	.
2G|>\	.	2B/	.	2g/	.	2g/	-cem	.
!	!	!	!	!	!	!LO:LB:g=original	!	!
=5	=5	=5	=5	=5	=5	=5	=5	=5
2A|>\	.	2f#/	.	2a/	.	2a\	Do-	.
2B|>\	.	2g/	.	2b/	.	2b\	-na	.
=6	=6	=6	=6	=6	=6	=6	=6	=6
*	*	*	*	*2\right	*	*	*	*
2c\	.	2a/	.	2cc\	.	2cc\	no-	.
2B\	.	2g/	.	2b\	.	2b\	-bis	.
=7	=7	=7	=7	=7	=7	=7	=7	=7
2B\	.	2g/	.	2b\	.	2b\	pa-	.
2A\	.	2f#/	.	2a\	.	2a\	-cem	.
=8	=8	=8	=8	=8	=8	=8	=8	=8
!	!	!	!	!	!	!LO:TX:a:t=1	!	!
4r	.	4r	.	4r	.	1r	.	.
!	!	!	!	!	!LO:DY:b:t=for.	!	!	!
4D|>\	.	4d/	.	4d'/	f	.	.	.
4F#|>\	.	4d/	.	4f#'/	.	.	.	.
4A|>\	.	4d/	.	4a'/	.	.	.	.
!LO:LB:g=original	!	!	!	!	!	!	!	!
=9	=9	=9	=9	=9	=9	=9	=9	=9
2G|>\	.	2B/	.	2g/	.	2g/	do-	.
2A|>\	.	2c/	.	2a/	.	2a/	-na	.
=10	=10	=10	=10	=10	=10	=10	=10	=10
2F#|>\	.	2A/	.	2f#/	.	2f#/	no-	.
2G|>\	.	2B/	.	2g/	.	2g/	-bis	.
=11	=11	=11	=11	=11	=11	=11	=11	=11
2A|>\	.	2f#/	.	2a/	.	2a\	pa-	.
2B|>\	.	2g/	.	2b/	.	2b\	.	.
=12	=12	=12	=12	=12	=12	=12	=12	=12
2F#|>\	.	2A/	.	2f#/	.	2f#/	.	.
2G|>\	.	2B/	.	2g/	.	2g/	-cem	.
=13	=13	=13	=13	=13	=13	=13	=13	=13
2A|>\	.	2f#/	.	2a/	.	2a\	do-	.
2B|>\	.	2g/	.	2b/	.	2b\	-na	.
=14	=14	=14	=14	=14	=14	=14	=14	=14
2c\	.	2a/	.	2cc\	.	2cc\	no-	.
2B\	.	2g/	.	2b\	.	2b\	-bis	.
=15	=15	=15	=15	=15	=15	=15	=15	=15
2B\	.	2g/	.	2b\	.	2b\	pa-	.
2A\	.	2f#/	.	2a\	.	2a\	-cem	.
=16	=16	=16	=16	=16	=16	=16	=16	=16
!	!	!	!	!	!	!LO:TX:a:t=1	!	!
4r	.	4r	.	4r	.	1r	.	.
4D|>\	.	4d/	.	4d'/	.	.	.	.
4F#|>\	.	4d/	.	4f#'/	.	.	.	.
4A|>\	.	4d/	.	4a'/	.	.	.	.
=17	=17	=17	=17	=17	=17	=17	=17	=17
*	*	*2\right	*	*	*	*	*	*
!	!	!	!	!LO:TX:t=P:problem=takty 17-20 repetycja	!	!	!	!
2r	.	2b\	.	2dd\	.	2dd\	do-	.
2G|>\	.	2b\	.	2gg\	.	2gg\	-na	.
=18	=18	=18	=18	=18	=18	=18	=18	=18
2r	.	2g/	.	2b\	.	2b\	no-	.
2G|>\	.	2b/	.	2dd\	.	2dd\	-bis	.
!	!	!	!	!	!	!LO:LB:g=original	!	!
=19	=19	=19	=19	=19	=19	=19	=19	=19
2r	.	4a/	.	4cc\	.	4cc\	pa-	.
.	.	4g/	.	4b\	.	4b\	.	.
2D|>\	.	2g/	.	2cc\	.	2cc\	.	.
!	!	!	!	!LO:LB:g=original	!	!	!	!
=20	=20	=20	=20	=20	=20	=20	=20	=20
2r	.	2f#/	.	2a/	.	2a\	.	.
2D|>\	.	2d/	.	2f#/	.	2f#/	-cem	.
=21	=21	=21	=21	=21	=21	=21	=21	=21
2r	.	2b\	.	2dd\	.	2dd\	do-	.
2G|>\	.	2b\	.	2gg\	.	2gg\	-na	.
=22	=22	=22	=22	=22	=22	=22	=22	=22
!	!	!	!	!	!	!LO:TX:a:t=1	!	!
2r	.	2g/	.	2b\	.	1r	.	.
.	.	.	.	.	.	.	.	.
2G|>\	.	2b/	.	2dd\	.	.	.	.
!	!	!LO:LB:g=original	!	!	!	!	!	!
=23	=23	=23	=23	=23	=23	=23	=23	=23
2r	.	4a/	.	4cc\	.	4cc\	pa-	.
.	.	4g/	.	4b\	.	4b\	.	.
2D|>\	.	2a/	.	2cc\	.	2cc\	.	.
=24	=24	=24	=24	=24	=24	=24	=24	=24
2r	.	2f#/	.	2a/	.	2a\	.	.
2D|>\	.	2d/	.	2f#/	.	2f#/	.	.
=25	=25	=25	=25	=25	=25	=25	=25	=25
!	!LO:DY:b:t=forte.	!	!	!	!LO:DY:b:t=for.	!	!	!
4G'\	f	2g/	.	4g/	f	2g\	-cem	.
4A'\	.	.	.	4a/	.	.	.	.
4B'\	.	2r	.	4b/	.	2r	.	.
4F#|>\	.	.	.	4f#/	.	.	.	.
=26	=26	=26	=26	=26	=26	=26	=26	=26
!	!	!	!	!	!	!LO:TX:a:t=8	!	!
4G|>\	.	4g/	.	4g/	.	00r	.	.
4D|>\	.	4d/	.	4d/	.	.	.	.
4E|>\	.	4e/	.	4e/	.	.	.	.
4Fn|>\	.	4fn/	.	4fn/	.	.	.	.
!LO:LB:g=original	!	!	!	!	!	!	!	!
=27	=27	=27	=27	=27	=27	=27	=27	=27
!LO:SIC:v:s=4E|>\	!	!	!	!	!	!	!	!
4D|>\	.	2e/	.	4e/	.	.	.	.
4A|>\	.	.	.	4a/	.	.	.	.
4c|>\	.	2r	.	4cc/	.	.	.	.
4B|>\	.	.	.	4b/	.	.	.	.
=28	=28	=28	=28	=28	=28	=28	=28	=28
4A|>\	.	4a/	.	4a/	.	.	.	.
4E|>\	.	4e/	.	4e/	.	.	.	.
4F#X|>\	.	4f#X/	.	4f#X/	.	.	.	.
4G|>\	.	4g/	.	4g/	.	.	.	.
=29	=29	=29	=29	=29	=29	=29	=29	=29
*	*	*^	*	*	*	*	*	*
4F#|>\	.	2a/	2f#\	.	4f#/	.	.	.	.
4A|>\	.	.	.	.	4a/	.	.	.	.
4c|>\	.	2r	2ryy	.	4cc/	.	.	.	.
4A|>\	.	.	.	.	4a/	.	.	.	.
=30	=30	=30	=30	=30	=30	=30	=30	=30	=30
4G|>\	.	2b/	2g\	.	4g/	.	00r	.	.
4B|>\	.	.	.	.	4b/	.	.	.	.
4d|>\	.	2r	2ryy	.	4dd/	.	.	.	.
4B|>\	.	.	.	.	4b/	.	.	.	.
*	*	*v	*v	*	*	*	*	*	*
=31	=31	=31	=31	=31	=31	=31	=31	=31
4A|>\	.	4a/	.	4a/	.	.	.	.
4e|>\	.	4cc/	.	4ee/	.	.	.	.
4d|>\	.	4b/	.	4dd/	.	.	.	.
4F#|>\	.	4A/	.	4f#/	.	.	.	.
=32	=32	=32	=32	=32	=32	=32	=32	=32
.	.	8qqA/	.	.	.	.	.	.
2G\	.	2B/	.	2g/	.	.	.	.
2r	.	2r	.	2r	.	.	.	.
=	=	=	=	=	=	=	=	=
!LO:TX:t=P:problem=nadmiarowy takt pauzy w Canto	!	!LO:TX:t=P:problem=nadmiarowy takt pauzy w Canto	!	!LO:TX:t=P:problem=nadmiarowy takt pauzy w Canto	!	!	!	!
1ryy	.	1ryy	.	1ryy	.	.	.	.
=33	=33	=33	=33	=33	=33	=33	=33	=33
!LO:TX:t=P:problem=takty 33-34 - repetycja	!	!	!	!	!	!	!	!
!	!	!	!LO:DY:b:t=pp.	!	!LO:DY:b:t=pp.	!	!	!
2G|>\	.	2b\	pp	2dd\	pp	2dd\	Do-	.
2G|>\	.	2b\	.	2dd\	.	2dd\	-na	.
=34	=34	=34	=34	=34	=34	=34	=34	=34
!	!	!LO:SIC:v:s=4b\	!	!	!	!	!	!
2G|>\	.	4a\	.	4dd\	.	4dd\	no-	.
.	.	4ee\	.	4gg\	.	4gg\	.	.
2r	.	4dd\	.	4ff#\	.	4ff#\	-bis	.
.	.	4cc\	.	4ee\	.	4ee\	.	.
=35	=35	=35	=35	=35	=35	=35	=35	=35
2G|>\	.	2b\	.	2dd\	.	2dd\	do-	.
2G|>\	.	2b\	.	2dd\	.	2dd\	-na	.
=36	=36	=36	=36	=36	=36	=36	=36	=36
2G|>\	.	4b\	.	4dd\	.	4dd\	no-	.
.	.	4cc\	.	4ee\	.	4ee\	.	.
2r	.	4b\	.	4dd\	.	4dd\	-bis	.
!	!	!	!	!LO:SIC:v:s=4cc\	!	!	!	!
.	.	4a\	.	4b\	.	4cc\	.	.
!	!	!LO:LB:g=original	!	!	!	!LO:LB:g=original	!	!
=37	=37	=37	=37	=37	=37	=37	=37	=37
2G|>\	.	2g/	.	2b\	.	2b\	do-	.
2G|>\	.	2g/	.	2b\	.	2b\	-na	.
!LO:LB:g=original	!	!	!	!	!	!	!	!
=38	=38	=38	=38	=38	=38	=38	=38	=38
2r	.	4b/	.	4dd\	.	4dd\	no-	.
.	.	4a/	.	4cc\	.	4cc\	.	.
2G|>\	.	4g/	.	4b\	.	4b\	-bis	.
.	.	4a/	.	4cc\	.	4cc\	.	.
=39	=39	=39	=39	=39	=39	=39	=39	=39
2F#|>\	.	2a/	.	2cc\	.	2cc\	pa-	.
2G|>\	.	2g/	.	2b\	.	2b\	-cem	.
!	!	!	!	!LO:LB:g=original	!	!	!	!
=40	=40	=40	=40	=40	=40	=40	=40	=40
!LO:TX:a:t=1.	!	!	!	!	!	!LO:TX:a:t=1	!	!
1r	.	4r	.	4r	.	1r	.	.
!	!	!	!LO:DY:b:t=for.	!	!	!	!	!
.	.	4g/	f	4b'\	.	.	.	.
.	.	4a/	.	4cc'\	.	.	.	.
.	.	4b/	.	4dd'\	.	.	.	.
=41	=41	=41	=41	=41	=41	=41	=41	=41
!LO:TX:t=P:problem=takty 41-44 repetycja	!	!	!	!LO:TX:t=P:problem=takty 41-44 repetycja	!	!	!	!
!	!LO:DY:b:t=pp.	!	!LO:DY:b:t=pp.	!	!	!	!	!
4F#|>\	pp	2f#/	pp	2a/	.	2a\	do-	.
4D|>\	.	.	.	.	.	.	.	.
4F#|>\	.	2f#/	.	2a/	.	2a\	-na	.
4D|>\	.	.	.	.	.	.	.	.
=42	=42	=42	=42	=42	=42	=42	=42	=42
4F#|>\	.	4f#/	.	4a\	.	4a\	no-	.
4D|>\	.	4a/	.	4cc\	.	4cc\	.	.
4F#'\	.	4g/	.	4b\	.	4b\	-bis	.
4D'\	.	4f#/	.	4a\	.	4a\	.	.
=43	=43	=43	=43	=43	=43	=43	=43	=43
4G'\	.	4g/	.	4b\	.	4b\	pa-	.
4D'\	.	4a/	.	4cc\	.	4cc\	.	.
4G'\	.	2b/	.	2dd\	.	2dd\	-cem	.
4D|>\	.	.	.	.	.	.	.	.
=44	=44	=44	=44	=44	=44	=44	=44	=44
!	!	!	!	!	!	!LO:TX:a:t=1	!	!
4G'\	.	2r	.	2r	.	1r	.	.
4D'\	.	.	.	.	.	.	.	.
4G'\	.	2g/	.	2b/	.	.	.	.
4D'\	.	.	.	.	.	.	.	.
=45	=45	=45	=45	=45	=45	=45	=45	=45
4F#|>\	.	2f#/	.	2a/	.	2a\	do-	.
4D|>\	.	.	.	.	.	.	.	.
4F#|>\	.	2f#/	.	2a/	.	2a\	-na	.
4D|>\	.	.	.	.	.	.	.	.
=46	=46	=46	=46	=46	=46	=46	=46	=46
4F#|>\	.	4f#/	.	4a\	.	4a\	no-	.
4D|>\	.	4a/	.	4cc\	.	4cc\	.	.
4F#'\	.	4g/	.	4b\	.	4b\	-bis	.
4D'\	.	4f#/	.	4a\	.	4a\	.	.
!	!	!	!	!	!	!LO:LB:g=original	!	!
=47	=47	=47	=47	=47	=47	=47	=47	=47
4G'\	.	4g/	.	4b\	.	4b\	pa-	.
4D'\	.	4a/	.	4cc\	.	4cc\	.	.
4G'\	.	2b/	.	2dd\	.	2dd\	-cem	.
4D|>\	.	.	.	.	.	.	.	.
=48	=48	=48	=48	=48	=48	=48	=48	=48
!	!	!	!	!	!	!LO:TX:a:t=1	!	!
4G'\	.	2r	.	2r	.	1r	.	.
4D'\	.	.	.	.	.	.	.	.
4G'\	.	2g/	.	2b/	.	.	.	.
4D'\	.	.	.	.	.	.	.	.
=49	=49	=49	=49	=49	=49	=49	=49	=49
!	!	!LO:TX:t=P:problem=Takty 49-50 repetycja	!	!	!	!	!	!
!	!LO:DY:b:t=for.	!	!LO:DY:b:t=for	!	!LO:DY:b:t=for.	!	!	!
2G|\	f	4b\	f	2gg\	f	2gg\	Do-	.
.	.	4dd\	.	.	.	.	.	.
2F#|>\	.	4b\	.	2ff#\	.	2ff#\	-na	.
.	.	4dd\	.	.	.	.	.	.
!	!	!LO:LB:g=original	!	!	!	!	!	!
=50	=50	=50	=50	=50	=50	=50	=50	=50
2G|>\	.	4b\	.	2gg\	.	2gg\	no-	.
.	.	4dd\	.	.	.	.	.	.
2D|>\	.	4b\	.	2dd\	.	2dd\	-bis	.
.	.	4dd\	.	.	.	.	.	.
=51	=51	=51	=51	=51	=51	=51	=51	=51
2G|>\	.	4b\	.	2gg\	.	2gg\	Do-	.
.	.	4dd\	.	.	.	.	.	.
2F#|>\	.	4b\	.	2ff#\	.	2ff#\	-na	.
.	.	4dd\	.	.	.	.	.	.
!LO:LB:g=original	!	!	!	!	!	!	!	!
=52	=52	=52	=52	=52	=52	=52	=52	=52
2G|>\	.	4b\	.	2gg\	.	2gg\	no-	.
.	.	4dd\	.	.	.	.	.	.
2D|>\	.	4b\	.	2dd\	.	2dd\	-bis	.
.	.	4dd\	.	.	.	.	.	.
=53	=53	=53	=53	=53	=53	=53	=53	=53
2E|>\	.	4cc'\	.	4ee'\	.	4ee\	pa-	.
.	.	4b'\	.	4dd'\	.	4dd\	.	.
2r	.	4a'\	.	4cc'\	.	4cc\	.	.
.	.	4g'\	.	4b'\	.	4b\	.	.
=54	=54	=54	=54	=54	=54	=54	=54	=54
2AA|</	.	2f#/	.	2a/	.	2a\	.	.
2D|</	.	2f#/	.	2dd\	.	2dd\	.	.
=55	=55	=55	=55	=55	=55	=55	=55	=55
2GG/	.	4g/	.	4g'/	.	2g\	-cem	.
.	.	4f#/	.	4a'/	.	.	.	.
2r	.	4g/	.	4b'/	.	2r	.	.
.	.	4a/	.	4cc'/	.	.	.	.
=56	=56	=56	=56	=56	=56	=56	=56	=56
!LO:TX:a:t=1.	!	!	!	!	!	!LO:TX:a:t=1.	!	!
1r	.	(4b\	.	4dd'\	.	1r	.	.
.	.	4cc\)	.	4ee'\	.	.	.	.
.	.	(4a\	.	4ff#'\	.	.	.	.
.	.	4b\)	.	4gg'\	.	.	.	.
=57	=57	=57	=57	=57	=57	=57	=57	=57
!	!	!LO:TX:t=P:problem=Takty 57-58 repetycja	!	!	!	!	!	!
!	!	!	!LO:DY:b:t=p.	!	!	!	!	!
2G|>\	.	4b\	p	2gg\	.	2gg\	Do-	.
.	.	4dd\	.	.	.	.	.	.
2F#|>\	.	4b\	.	2ff#\	.	2ff#\	-na	.
.	.	4dd\	.	.	.	.	.	.
!	!	!	!	!	!	!LO:LB:g=original	!	!
=58	=58	=58	=58	=58	=58	=58	=58	=58
2G|>\	.	4b\	.	2gg\	.	2gg\	no-	.
.	.	4dd\	.	.	.	.	.	.
2D|>\	.	4b\	.	2dd\	.	2dd\	-bis	.
.	.	4dd\	.	.	.	.	.	.
=59	=59	=59	=59	=59	=59	=59	=59	=59
2G|>\	.	4b\	.	2gg\	.	2gg\	Do-	.
.	.	4dd\	.	.	.	.	.	.
2F#|>\	.	4b\	.	2ff#\	.	2ff#\	-na	.
.	.	4dd\	.	.	.	.	.	.
=60	=60	=60	=60	=60	=60	=60	=60	=60
2G|>\	.	4b\	.	2gg\	.	2gg\	no-	.
.	.	4dd\	.	.	.	.	.	.
2D|>\	.	4b\	.	2dd\	.	2dd\	-bis	.
.	.	4dd\	.	.	.	.	.	.
!	!	!	!	!LO:LB:g=original	!	!	!	!
=61	=61	=61	=61	=61	=61	=61	=61	=61
4E|>\	.	4cc'\	.	4ee'\	.	4ee\	pa-	.
4D|>\	.	4b'\	.	4dd'\	.	4dd\	.	.
4C|>\	.	4a'\	.	4cc'\	.	4cc\	.	.
4BB|>\	.	4g'\	.	4b'\	.	4b\	.	.
!LO:LB:g=original	!	!	!	!	!	!	!	!
=62	=62	=62	=62	=62	=62	=62	=62	=62
2AA/	.	2f#/	.	2a/	.	2a\	.	.
2D/	.	2f#/	.	2dd\	.	2dd\	.	.
=63	=63	=63	=63	=63	=63	=63	=63	=63
!	!LO:DY:b:t=fortiſsime.	!	!LO:DY:b:t=forti=	!	!	!	!	!
4G\	ff	4g/	f	4g/	.	2g/	-cem	.
8G\L	.	8g/L	.	8g/L	.	.	.	.
8A\J	.	8a/J	.	8a/J	.	.	.	.
4B\	.	4b/	.	4b/	.	2r	.	.
4A\	.	4a/	.	4a/	.	.	.	.
=64	=64	=64	=64	=64	=64	=64	=64	=64
!	!	!	!	!	!	!LO:TX:a:t=6.	!	!
4G|>\	.	4g/	.	4g/	.	00r	.	.
4F#|>\	.	4f#/	.	4f#/	.	.	.	.
4E|>\	.	4e/	.	4e/	.	.	.	.
4D|>\	.	4d/	.	4d/	.	.	.	.
=65	=65	=65	=65	=65	=65	=65	=65	=65
4E\	.	4e/	.	4e/	.	.	.	.
8E\L	.	8e/L	.	8e/L	.	.	.	.
8F#\J	.	8f#/J	.	8f#/J	.	.	.	.
4G\	.	4g/	.	4g/	.	.	.	.
4F#\	.	4f#/	.	4f#/	.	.	.	.
!	!	!LO:LB:g=original	!	!	!	!	!	!
=66	=66	=66	=66	=66	=66	=66	=66	=66
4E|</	.	4e'/	.	4e/	.	.	.	.
4D|</	.	4d'/	.	4d/	.	.	.	.
4C|</	.	4c'/	.	4c/	.	.	.	.
4BB|</	.	4B'/	.	4B/	.	.	.	.
=67	=67	=67	=67	=67	=67	=67	=67	=67
4C/	.	4c/	.	4c/	.	.	.	.
8C/L	.	8c/L	.	8c/L	.	.	.	.
8D/J	.	8d/J	.	8d/J	.	.	.	.
4E/	.	4e/	.	4e/	.	.	.	.
4D/	.	4d/	.	4d/	.	.	.	.
=68	=68	=68	=68	=68	=68	=68	=68	=68
4C'/	.	4c'/	.	4c/	.	0r	.	.
4BB'/	.	4B'/	.	4B/	.	.	.	.
4AA'/	.	4A'/	.	4A/	.	.	.	.
4GG'/	.	4G'/	.	4G/	.	.	.	.
=69	=69	=69	=69	=69	=69	=69	=69	=69
1D;>	.	1d;>	.	1d;>	.	.	.	.
!LO:LB:g=original	!	!	!	!	!	!	!	!
=70	=70	=70	=70	=70	=70	=70	=70	=70
!LO:TX:a:t=7.	!	!	!	!	!	!	!	!
!	!	!	!LO:DY:b:t=p.	!	!LO:DY:b:t=p.	!	!	!
00r	.	2B/	p	2g/	p	2g/	Do-	.
.	.	2c/	.	2a/	.	2a/	-na	.
=71	=71	=71	=71	=71	=71	=71	=71	=71
.	.	2A/	.	2f#/	.	2f#/	no-	.
.	.	2B/	.	2g/	.	2g/	-bis	.
=72	=72	=72	=72	=72	=72	=72	=72	=72
.	.	2f#/	.	2a/	.	2a\	pa-	.
.	.	2g/	.	2b/	.	2b\	.	.
=73	=73	=73	=73	=73	=73	=73	=73	=73
.	.	2A/	.	2f#/	.	2f#/	.	.
.	.	2B/	.	2g/	.	2g/	-cem	.
=74	=74	=74	=74	=74	=74	=74	=74	=74
0r	.	2f#/	.	2a/	.	2a\	do-	.
.	.	2g/	.	2b/	.	2b\	-na	.
!	!	!	!	!	!	!LO:LB:g=original	!	!
=75	=75	=75	=75	=75	=75	=75	=75	=75
.	.	2a/	.	2cc\	.	2cc\	no-	.
.	.	2g/	.	2b\	.	2b\	-bis	.
!	!	!	!	!LO:LB:g=original	!	!	!	!
=76	=76	=76	=76	=76	=76	=76	=76	=76
1r	.	2g/	.	2b\	.	2b\	pa-	.
.	.	2f#/	.	2a\	.	2a\	-cem	.
=77	=77	=77	=77	=77	=77	=77	=77	=77
!	!	!	!	!	!	!LO:TX:a:t=1	!	!
4r	.	4r	.	4r	.	1r	.	.
!	!LO:DY:b:t=fortiſsime.	!	!	!	!	!	!	!
4D|>\	ff	4d/	.	4d'/	.	.	.	.
4F#|>\	.	4d/	.	4f#'/	.	.	.	.
4A|>\	.	4d/	.	4a'/	.	.	.	.
=78	=78	=78	=78	=78	=78	=78	=78	=78
!	!	!	!	!	!LO:DY:b:t=for.	!	!	!
2G|>\	.	2b\	.	2dd\	f	2dd\	Do-	.
2G|>\	.	2b\	.	2gg\	.	2gg\	-na	.
!	!	!LO:LB:g=original	!	!	!	!	!	!
=79	=79	=79	=79	=79	=79	=79	=79	=79
!	!	!LO:SIC:v:s=	!	!	!	!	!	!
2G|>\	.	2f#/	.	2b\	.	2b\	no-	.
2G|>\	.	2b/	.	2dd\	.	2dd\	-bis	.
=80	=80	=80	=80	=80	=80	=80	=80	=80
2D|>\	.	2a/	.	2cc\	.	2cc\	pa-	.
2D|>\	.	2a/	.	2cc\	.	2cc\	.	.
=81	=81	=81	=81	=81	=81	=81	=81	=81
2D\	.	2f#/	.	2a/	.	2a\	.	.
2D\	.	2a/	.	2cc/	.	2cc\	-cem	.
=82	=82	=82	=82	=82	=82	=82	=82	=82
2G|>\	.	2g/	.	2b\	.	2b\	Do-	.
2G|>\	.	2b/	.	2gg\	.	2gg\	-na	.
=83	=83	=83	=83	=83	=83	=83	=83	=83
2G|>\	.	2g/	.	2b\	.	2b\	no-	.
2G|>\	.	2b/	.	2dd\	.	2dd\	-bis	.
=84	=84	=84	=84	=84	=84	=84	=84	=84
2D|>\	.	2a/	.	2cc\	.	2cc\	pa-	.
2D|>\	.	2a/	.	2cc\	.	2cc\	.	.
=85	=85	=85	=85	=85	=85	=85	=85	=85
2D|>\	.	2f#/	.	2a/	.	2a\	.	.
2D|>\	.	2d/	.	2f#/	.	2f#\	.	.
=86	=86	=86	=86	=86	=86	=86	=86	=86
2GG/	.	2B/	.	2g/	.	2g/	-cem	.
!	!	!	!	!LO:TX:a:t=86.	!	!LO:TX:a:t=86	!	!
2r	.	2r	.	2r	.	2r	.	.
!LO:PB:g=original	!	!LO:LB:g=original	!	!LO:LB:g=original	!	!LO:PB:g=original	!	!
==	==	==	==	==	==	==	==	==
*-	*-	*-	*-	*-	*-	*-	*-	*-
!!!system-decoration: s1[(s2,s3,s4)]
!!!RDF**kern: < = below
!!!RDF**kern: > = above
!!!RDF**kern: | = vertical stroke
!!!ENC: Andrzej Gręziak
!!!END: 2020-04-25
!!!ENC: Marta Chmielewska
!!!END: 2021-12-31
